X:199
T:Longford Collector
Z: id:dc-reel-182
M:C
L:1/8
K:G Major
G3A Bcdf|eBB2 eBAB|G3A BcdB|AcBA GED2|!
G3A Bcdf|eBB2 d2ef|gbaf gedB|AcBA GED2:|!
g3a gedf|eBB2 d2ef|g2fa gedB|AcBA GED2|!
g3a gedf|eBB2 d2ef|gbaf gedB|AcBA GED2:|!

